img/svg/partners-image-13.svg

<svg width="84" height="84" viewBox="0 0 84 84" fill="none" xmlns="http://www.w3.org/2000/svg">
<g clip-path="url(#clip0)">
<path d="M83.4336 41.7994C83.4336 64.8416 64.7556 83.5167 41.7168 83.5167C18.678 83.5167 0 64.8416 0 41.7994C0 18.7572 18.677 0.0809994 41.7168 0.0809994C64.7567 0.0809994 83.4336 18.7572 83.4336 41.7963" fill="#0A2A79"/>
<path d="M56.962 38.502H52.6847V40.4109L56.962 40.4057V42.9866H52.6847V45.1046H56.962V48.6595H48.2383V35.0451H56.962V38.502Z" fill="white"/>
<path d="M64.5452 44.9274C64.5452 44.9388 66.2489 41.4375 66.2489 41.4375C66.2489 41.4375 67.9197 44.9418 67.9197 44.9274H64.5452ZM66.2489 33.9248C63.4908 38.7938 58.0602 48.6637 58.0602 48.6637H62.7137L63.4671 47.1815H69.0246L69.7574 48.6637H74.4428L66.2489 33.9248Z" fill="white"/>
<path d="M39.7107 41.1468L42.7646 35.0451H47.5058C47.5233 35.0451 39.7076 49.6737 39.7076 49.6737L31.9229 35.0451H36.6712C36.6712 35.0451 39.4675 40.7211 39.7107 41.1468Z" fill="white"/>
<path d="M31.1953 48.6595H26.7438V35.0451C26.7438 35.0451 31.1953 35.0616 31.1953 35.0451V48.6595Z" fill="white"/>
<path d="M18.2721 40.3129V35.044H22.7226V49.6737L15.4955 43.3854V48.6595H11.0388V34.0144L18.2721 40.3129Z" fill="white"/>
</g>
<defs>
<clipPath id="clip0">
<rect y="0.0849609" width="83.4326" height="83.4326" fill="white"/>
</clipPath>
</defs>
</svg>

<svg width="84" height="84" viewBox="0 0 84 84" fill="none" xmlns="http://www.w3.org/2000/svg"><g clip-path="url(#clip0)"><path d="M83.434 41.8c0 23.042-18.678 41.717-41.717 41.717C18.678 83.517 0 64.842 0 41.799 0 18.757 18.677.081 41.717.081s41.717 18.676 41.717 41.715" fill="#0A2A79"/><path d="M56.962 38.502h-4.277v1.909l4.277-.005v2.58h-4.277v2.119h4.277v3.555h-8.724V35.044h8.724v3.457zm7.583 6.425c0 .012 1.704-3.49 1.704-3.49s1.67 3.505 1.67 3.49h-3.374zm1.704-11.002c-2.758 4.869-8.189 14.739-8.189 14.739h4.654l.753-1.483h5.558l.732 1.483h4.686l-8.194-14.74zM39.71 41.147l3.055-6.102h4.74c.018 0-7.797 14.629-7.797 14.629l-7.785-14.629h4.748s2.797 5.676 3.04 6.102zm-8.515 7.513h-4.451V35.044s4.451.017 4.451 0V48.66zm-12.923-8.347v-5.269h4.45v14.63l-7.227-6.289v5.275H11.04V34.014l7.233 6.299z" fill="#fff"/></g><defs><clipPath id="clip0"><path fill="#fff" d="M0 .085h83.433v83.433H0z"/></clipPath></defs></svg>
